X: 37
T: No_19_"Mine_is_a_Proud_Village".krn
N: Derived from No_19_"Mine_is_a_Proud_Village".krn
%%abc-version 2.0
%%abcx-abcm2ps-target-version 5.9.1 (29 Sep 2008)
%%abc-creator hum2abc beta
%%abcx-conversion-date 2019/03/15 08:36:13
%%humdrum-veritas 3936214532
%%humdrum-veritas-data 2472793854
%%linebreak <none>
%%barnumbers 0
L: 1/8
M: 3/4
K: Bb clef=bass
[K:clef=bass][M:3/4]z4z .('z/ C/ | 
E3/E/ E3/E/ (3FED | 
E3/E/ (3EDC (3DCB, ||  
[M:2/4]B,3/B,/ B,C/D/ ||  
[M:3/4]C2C) z .('C/D/D/D/ ||  
[M:2/4]C2C) z | 
D3/.('D/ D3/B,/ ||  
[M:3/4]B,3/B,/ B,) z .('D/D/D/D/ | 
C2C) z .('D/D/D/D/ ||  
[M:2/4]C2C z | 
D3/C/ D3/B,/ ||  
[M:3/4]C2C2C/) z/ .('C | 
(3CB,F,C2C) z |]  



